bell/images/youtube.svg

<svg width="26" height="18" viewBox="0 0 26 18" fill="none" xmlns="http://www.w3.org/2000/svg">
<path d="M13.576 17.9763L8.24183 17.8791C6.51474 17.845 4.78333 17.9126 3.0901 17.5601C0.514312 17.0334 0.331831 14.4516 0.140887 12.2856C-0.122214 9.2405 -0.020337 6.13986 0.47617 3.12017C0.756465 1.4258 1.85952 0.414594 3.56538 0.304572C9.32393 -0.0947107 15.1207 -0.0471483 20.8665 0.13913C21.4734 0.156209 22.0844 0.249513 22.6827 0.355755C25.6364 0.873922 25.7084 3.80021 25.8999 6.26356C26.0908 8.75231 26.0102 11.2537 25.6452 13.7255C25.3524 15.7721 24.7922 17.4885 22.4281 17.6542C19.466 17.8708 16.5719 18.0453 13.6014 17.9897C13.6015 17.9766 13.5845 17.9763 13.576 17.9763ZM10.44 12.7949C12.6722 11.5122 14.8618 10.2509 17.0813 8.97679C14.8449 7.69408 12.6595 6.43281 10.44 5.15872V12.7949Z" fill="#5A6482"/>
</svg>

<svg width="26" height="18" fill="none" xmlns="http://www.w3.org/2000/svg"><path d="M13.576 17.976l-5.334-.097c-1.727-.034-3.459.034-5.152-.319C.514 17.033.332 14.452.14 12.286A37.035 37.035 0 01.477 3.12C.756 1.426 1.86.415 3.566.305c5.758-.4 11.555-.352 17.3-.166.607.017 1.218.11 1.817.217C25.636.874 25.708 3.8 25.9 6.264c.19 2.488.11 4.99-.255 7.462-.293 2.046-.853 3.762-3.217 3.928-2.962.217-5.856.391-8.827.336 0-.013-.017-.014-.025-.014zm-3.136-5.181c2.232-1.283 4.422-2.544 6.641-3.818-2.236-1.283-4.421-2.544-6.641-3.818v7.636z" fill="#5A6482"/></svg>
